X:261
T:Grandfather's Clock 
M:4/4 
L:1/8 
K:G 
DD | G2 FG A2 GA | B2 cB E2 AA | G2 GG F2 EF | G6 :| 
Bc | d2 BA G2 FG | AGFE D2 Bc | d2 BA G2 FG | A6 DD | 
G z3 A z3 | B/BB/ cB E2 AA | G4 F4 | G6 |] DD | 
G2 DD EE D2 | B,2 D2 B,2 D2 | G2 DD EE G2 | 
B,2 D2 B,2 D2 | G z3 A z3 | B/BB/ cB E2 AA | G4 F4 | G6 |] 
rris dance tune from Field Town.

